X: 707
T: Fangjin zhangsheng lai
L: 1/16
M: 2/4
K: F
c c c d f g f d [I:setbarnb 1]| 
c2> d2 A2 G A | 
c c c d f g f d | 
c2> d2 A2 G A | 
c Ac4d f | 
d2 c2 c2 G2 | 
A c A G A c A G | 
F2> G2F4 | 
A G F2 G3 A | 
c2> d2 f3 A | 
G2 A2 G A G F | 
G FD4D F | 
G2> A2 F2 D2 | 
c2 d fc4 |]

@@@ Tune index: 9581
